findly-builder/apps/searchassist/src/assets/icons/landing/experiment.svg

<svg width="34" height="34" viewBox="0 0 34 34" fill="none" xmlns="http://www.w3.org/2000/svg">
<path d="M20.5417 14.875H13.4583L5.10425 24.893C5.06954 24.9277 5.03979 24.9666 5.0065 25.0013L4.8365 25.1919H4.85067C4.4795 25.67 4.25 26.2636 4.25 26.9167C4.25 28.4814 5.51862 29.75 7.08333 29.75H26.9167C28.4814 29.75 29.75 28.4814 29.75 26.9167C29.75 26.2855 29.5368 25.709 29.1883 25.2386H29.1989L29.0707 25.0962C29.0055 25.0197 28.9425 24.9411 28.8702 24.8724L20.5417 14.875Z" fill="#85B7FE"/>
<path d="M13.4585 6.375H20.5418V15.8787H13.4585V6.375Z" fill="#85B7FE"/>
<path d="M21.9582 5.66667C21.9582 6.44867 21.3235 7.08333 20.5415 7.08333H13.4582C12.6762 7.08333 12.0415 6.44867 12.0415 5.66667C12.0415 4.88467 12.6762 4.25 13.4582 4.25H20.5415C21.3235 4.25 21.9582 4.88467 21.9582 5.66667Z" fill="#85B7FE"/>
<path d="M28.0505 26.0822L28.0406 26.0688L28.0165 26.0419L28.0024 26.027L27.9889 26.0121L27.9549 25.971C27.933 25.9448 27.9117 25.9179 27.8876 25.8938L27.8473 25.8549L27.814 25.8173L23.1425 20.1875H10.8536L6.15809 25.8393L6.13259 25.8676L6.12338 25.8768C6.09646 25.908 6.07521 25.9328 6.05325 25.9555L6.02492 25.9873L5.96967 26.0596C5.83155 26.2381 5.6665 26.532 5.6665 26.9167C5.6665 27.698 6.30188 28.3333 7.08317 28.3333H26.9165C27.6978 28.3333 28.3332 27.698 28.3332 26.9167C28.3332 26.5427 28.1788 26.2565 28.0505 26.0822Z" fill="#FFDA2D"/>
<path d="M20.5415 22.667C19.9779 22.667 19.4374 22.8909 19.0389 23.2894C18.6404 23.6879 18.4165 24.2284 18.4165 24.792C18.4165 25.3556 18.6404 25.8961 19.0389 26.2946C19.4374 26.6931 19.9779 26.917 20.5415 26.917C21.1051 26.917 21.6456 26.6931 22.0441 26.2946C22.4426 25.8961 22.6665 25.3556 22.6665 24.792C22.6665 24.2284 22.4426 23.6879 22.0441 23.2894C21.6456 22.8909 21.1051 22.667 20.5415 22.667Z" fill="#FFFBEA"/>
<path d="M15.5832 21.25C15.2074 21.25 14.8471 21.3993 14.5814 21.6649C14.3158 21.9306 14.1665 22.2909 14.1665 22.6667C14.1665 23.0424 14.3158 23.4027 14.5814 23.6684C14.8471 23.9341 15.2074 24.0833 15.5832 24.0833C15.9589 24.0833 16.3192 23.9341 16.5849 23.6684C16.8506 23.4027 16.9998 23.0424 16.9998 22.6667C16.9998 22.2909 16.8506 21.9306 16.5849 21.6649C16.3192 21.3993 15.9589 21.25 15.5832 21.25Z" fill="#FFFBEA"/>
<path d="M17.7085 14.875C17.3328 14.875 16.9724 15.0243 16.7068 15.2899C16.4411 15.5556 16.2918 15.9159 16.2918 16.2917C16.2918 16.6674 16.4411 17.0277 16.7068 17.2934C16.9724 17.5591 17.3328 17.7083 17.7085 17.7083C18.0842 17.7083 18.4446 17.5591 18.7102 17.2934C18.9759 17.0277 19.1252 16.6674 19.1252 16.2917C19.1252 15.9159 18.9759 15.5556 18.7102 15.2899C18.4446 15.0243 18.0842 14.875 17.7085 14.875ZM16.646 10.625C16.3642 10.625 16.094 10.7369 15.8947 10.9362C15.6954 11.1355 15.5835 11.4057 15.5835 11.6875C15.5835 11.9693 15.6954 12.2395 15.8947 12.4388C16.094 12.6381 16.3642 12.75 16.646 12.75C16.9278 12.75 17.198 12.6381 17.3973 12.4388C17.5966 12.2395 17.7085 11.9693 17.7085 11.6875C17.7085 11.4057 17.5966 11.1355 17.3973 10.9362C17.198 10.7369 16.9278 10.625 16.646 10.625Z" fill="white"/>
</svg>

<svg width="34" height="34" fill="none" xmlns="http://www.w3.org/2000/svg"><path d="M20.542 14.875h-7.084L5.104 24.893c-.034.035-.064.074-.098.108l-.17.19h.015a2.8 2.8 0 0 0-.601 1.726 2.833 2.833 0 0 0 2.833 2.833h19.834a2.833 2.833 0 0 0 2.833-2.833 2.8 2.8 0 0 0-.562-1.678h.01l-.127-.143c-.066-.076-.129-.155-.2-.224l-8.33-9.997Z" fill="#85B7FE"/><path d="M13.459 6.375h7.083v9.504h-7.084V6.375Z" fill="#85B7FE"/><path d="M21.958 5.667c0 .782-.634 1.416-1.416 1.416h-7.084a1.417 1.417 0 0 1 0-2.833h7.083c.782 0 1.417.635 1.417 1.417Z" fill="#85B7FE"/><path d="m28.05 26.082-.01-.013-.023-.027-.015-.015-.013-.015-.034-.041c-.022-.026-.043-.053-.067-.077l-.04-.04-.034-.037-4.672-5.63H10.854L6.158 25.84l-.025.029-.01.009c-.027.031-.048.056-.07.079l-.028.031-.055.073a1.402 1.402 0 0 0-.303.857c0 .781.635 1.416 1.416 1.416h19.834c.78 0 1.416-.635 1.416-1.416 0-.374-.154-.66-.282-.835Z" fill="#FFDA2D"/><path d="M20.541 22.667a2.125 2.125 0 1 0 0 4.25 2.125 2.125 0 0 0 0-4.25Zm-4.958-1.417a1.417 1.417 0 1 0 0 2.834 1.417 1.417 0 0 0 0-2.834Z" fill="#FFFBEA"/><path d="M17.709 14.875a1.417 1.417 0 1 0 0 2.834 1.417 1.417 0 0 0 0-2.834Zm-1.063-4.25a1.062 1.062 0 1 0 0 2.125 1.062 1.062 0 0 0 0-2.125Z" fill="#fff"/></svg>
